src/pos-icons/map-marker-left-outline.svg

<svg height="24" viewBox="0 0 24 24" width="24" xmlns="http://www.w3.org/2000/svg"><path d="m15 6.5c1.38 0 2.5 1.12 2.5 2.5s-1.12 2.5-2.5 2.5-2.5-1.12-2.5-2.5 1.12-2.5 2.5-2.5m0-4.5c3.87 0 7 3.13 7 7 0 5.25-7 13-7 13s-7-7.75-7-13c0-3.87 3.13-7 7-7m-5 7c0 1 0 3 5 9.71 5-6.71 5-8.71 5-9.71 0-2.76-2.24-5-5-5s-5 2.24-5 5m-4-2-5 5 5 5z"/></svg>

<?xml version="1.0" encoding="UTF-8"?><!DOCTYPE svg PUBLIC "-//W3C//DTD SVG 1.1//EN" "http://www.w3.org/Graphics/SVG/1.1/DTD/svg11.dtd"><svg xmlns="http://www.w3.org/2000/svg" xmlns:xlink="http://www.w3.org/1999/xlink" version="1.1" id="mdi-map-marker-left-outline" width="24" height="24" viewBox="0 0 24 24"><path d="M15 6.5C16.38 6.5 17.5 7.62 17.5 9S16.38 11.5 15 11.5 12.5 10.38 12.5 9 13.62 6.5 15 6.5M15 2C18.87 2 22 5.13 22 9C22 14.25 15 22 15 22S8 14.25 8 9C8 5.13 11.13 2 15 2M10 9C10 10 10 12 15 18.71C20 12 20 10 20 9C20 6.24 17.76 4 15 4S10 6.24 10 9M6 7L1 12L6 17V7Z" /></svg>
